X:1
T: The Iron Wooden Shovel
C:
B:E.F. Adam, "Old Time Fiddlers Favorite Barn Dance Tunes," St. Louis, 1928
N:The title may come from the folk song "Did you ever see the devil,
N:With his iron-wooden shovel, A scratching up the gravel With his night-cap on?"
M:2/4
K:A
eg|fece aece|fece aecA|Bege bege|a2(3bag a2eg|
fece aece|fece aecA|Bege bege|a2(3bag a2:|
|:eg|fecB ABcA|[Ec]3[EB] [Ec]2 eg|fecB ABcA|[BE]3[Ec] [BE]2 eg|
fecB ABcA|[Ec]3[EB] [Ec]2 cA|Bege bege|a2(3bag a2:|

